svg/unimus.svg

<svg xmlns="http://www.w3.org/2000/svg" xmlns:svg="http://www.w3.org/2000/svg" width="52" height="39" version="1.1"><title>unimus</title><defs><clipPath id="clipPath14"><rect id="svg_1" width="336.91" height="61.64" y=".77" fill="#fff"/></clipPath><clipPath id="clipPath13"><rect id="svg_2" width="336.91" height="61.64" y=".77" fill="#fff"/></clipPath><clipPath id="clipPath12"><rect id="svg_3" width="336.91" height="61.64" y=".77" fill="#fff"/></clipPath><linearGradient id="paint0_linear_1870_3599" x1=".51" x2="1.29" y1=".43" y2="1"><stop offset="0" stop-color="#AC79FF"/><stop offset="1" stop-color="#784CBF"/></linearGradient><clipPath id="clipPath11"><rect id="svg_4" width="336.91" height="61.64" y=".77" fill="#fff"/></clipPath><clipPath id="clipPath10"><rect id="svg_5" width="336.91" height="61.64" y=".77" fill="#fff"/></clipPath></defs><g class="layer"><title>Layer 1</title><path id="svg_6" fill="#ac79ff" d="m0,8.92l0,-8.91l12.97,0l-12.97,8.91z" clip-path="url(#clipPath14)"/><path id="svg_7" fill="#ac79ff" d="m15.39,38.9l36.46,-27.55l-14.45,27.55l-22.02,0z" clip-path="url(#clipPath13)"/><path id="svg_8" fill="#784cbf" d="m0,8.92l12.97,9.72l0,-18.64l-12.97,8.91z" clip-path="url(#clipPath12)"/><path id="svg_9" fill="url(#paint0_linear_1870_3599)" d="m28.36,29.18l-28.36,-20.26l15.4,29.98l12.96,-9.72z" clip-path="url(#clipPath11)"/><path id="svg_10" fill="#784cbf" d="m38.37,21.88l13.49,-10.53l-13.49,-11.34l0,21.88z" clip-path="url(#clipPath10)"/></g></svg>

<svg xmlns="http://www.w3.org/2000/svg" width="52" height="39"><defs><clipPath id="a"><path fill="#fff" d="M0 .77h336.91v61.64H0z"/></clipPath><clipPath id="b"><path fill="#fff" d="M0 .77h336.91v61.64H0z"/></clipPath><clipPath id="c"><path fill="#fff" d="M0 .77h336.91v61.64H0z"/></clipPath><clipPath id="e"><path fill="#fff" d="M0 .77h336.91v61.64H0z"/></clipPath><clipPath id="f"><path fill="#fff" d="M0 .77h336.91v61.64H0z"/></clipPath><linearGradient id="d" x1=".51" x2="1.29" y1=".43" y2="1"><stop offset="0" stop-color="#AC79FF"/><stop offset="1" stop-color="#784CBF"/></linearGradient></defs><g class="layer"><path fill="#ac79ff" d="M0 8.92V.01h12.97z" clip-path="url(#a)"/><path fill="#ac79ff" d="m15.39 38.9 36.46-27.55L37.4 38.9H15.38z" clip-path="url(#b)"/><path fill="#784cbf" d="m0 8.92 12.97 9.72V0L0 8.91z" clip-path="url(#c)"/><path fill="url(#d)" d="M28.36 29.18 0 8.92 15.4 38.9z" clip-path="url(#e)"/><path fill="#784cbf" d="m38.37 21.88 13.49-10.53L38.37.01v21.88z" clip-path="url(#f)"/></g></svg>
